svg/furkot/freepik/navigate.svg

<svg viewBox="0 0 512 512" xmlns="http://www.w3.org/2000/svg"><path d="m256.004 0c-141.166 0-256 114.85-256 256.015 0 141.173 114.834 256.025 256 256.025 141.182 0 256.032-114.852 256.032-256.025 0-141.165-114.85-256.015-256.032-256.015zm0 478.461c-122.638 0-222.421-99.791-222.421-222.446s99.783-222.437 222.421-222.437c122.67 0 222.453 99.782 222.453 222.437s-99.783 222.446-222.453 222.446z"/><path d="m359.362 129.965-222.485 118.663c-6.559 3.502-10.035 10.903-8.544 18.192 1.509 7.286 7.624 12.723 15.035 13.354l81.584 6.919 6.92 81.592c.621 7.411 6.065 13.526 13.345 15.027 1.131.23 2.262.343 3.393.343 6.1 0 11.839-3.345 14.806-8.887l118.655-222.485c3.475-6.526 2.294-14.551-2.934-19.773-5.234-5.231-13.252-6.428-19.775-2.945z"/></svg>

<svg xmlns="http://www.w3.org/2000/svg" viewBox="0 0 512 512"><path d="M256.004 0C114.838 0 0.004 114.85 0.004 256.015 0.004 397.188 114.838 512.04 256.004 512.04 397.186 512.04 512.036 397.188 512.036 256.015 512.036 114.85 397.186 0 256.004 0ZM256.004 478.461C133.366 478.461 33.583 378.67 33.583 256.015S133.366 33.578 256.004 33.578C378.674 33.578 478.457 133.36 478.457 256.015 478.457 378.67 378.674 478.461 256.004 478.461Z"/><path d="M359.362 129.965L136.877 248.628C130.318 252.13 126.842 259.531 128.333 266.82 129.842 274.106 135.957 279.543 143.368 280.174L224.952 287.093 231.872 368.685C232.493 376.096 237.937 382.211 245.217 383.712 246.348 383.942 247.479 384.055 248.61 384.055 254.71 384.055 260.449 380.71 263.416 375.168L382.071 152.683C385.546 146.157 384.365 138.132 379.137 132.91 373.903 127.679 365.885 126.482 359.362 129.965Z"/></svg>
